X:1801
T:Gammellappen stämma
R:Vals
O:Västerbotten
Z:Anton Teljebäck
M:3/4
L:1/4
K:Dm
[CD] | [D3A] | [E3G,] | [F3A]  | [G3G,] | [A3D] | [G3G,] | [FA][FA][EA]  | [D2A] [CD]|
| [D3A] | [E3G,] | [F3A]  | [G3G,] | [A3D] | [B3D] | [c3D] | [d3D] ||
|: D3 | ^C3 | =C3 | =B,3 | _B,3 | |A,3 | A,A,A, | D,3 :| 
(:musicend:)



(:music:)
